X: 1622
T: Cronin's Rambles
R:hornpipe
N:"Collected by F. Cronin"
B:O'Neill's 1622
Z:Transcribed by Michael Hogan
M:C|
L:1/8
K:A
E2 | AGAB cABc | dcdf ed (3efg | aecA dfed | cABG EFGE |
 AGAB cABc | dcdf ed (3efg | aecA dBGB | A2 A2 A2 :|
|: A2 | Aceg aece | gefd efge | aecA dfed | cABG EFGE |
Aceg aecA | gfdf e2 (3efg | aecA dBGB | A2 A2 A2 :||


